X:1
T:J. E. Hall
T:J. E. Hall
T:What Boundless Love!
%%score { ( 1 2 ) | ( 3 4 ) }
L:1/8
M:4/4
K:C
V:1 treble 
V:2 treble 
V:3 bass 
V:4 bass 
V:1
 G2 | G3 E FGA>G | (G4 c2) c2 | c3 B Acd>c | (B4 A2) G2 | G3 E FGe>d | (c4 A2) c2 | G3 G G2 AB | %8
 c6 E>F | G6 c2 | A6 c2 | G3 G GGA>G | G6 E>F | G6 e>d | c6 A2 | G3 G Acc>B | c6 |] %17
V:2
 E2 | E3 C DEF>E | E6 G2 | F3 F FF^F>F | (G4 E2) F2 | E3 C DEE>E | (E4 F2) D2 | E3 E F2 F2 | %8
 E6 C>D | E6 G2 | F6 F2 | E3 E FFF>F | E6 C>D | E2 F2 G2 G>F | E2 G2 F2 ^D2 | E3 E FEF>F | E6 |] %17
V:3
 C2 | C3 G, G,G,C>C | (C4 G,2) _B,2 | A,3 B, CA,B,>D | D6 B,2 | C3 G, G,G,G,>^G, | (A,4 C2) A,2 | %7
 C3 C B,2 G,2 | G,6 G,2 | C2 C2 C2 C2 | C2 C2 C2 A,2 | C3 C B,B,B,>B, | C6 G,2 | C2 B,2 C2 B,2 | %14
 C2 _B,2 A,2 C2 | C3 C CCD>D | C6 |] %17
V:4
 C,2 | C,3 C, C,C,C,>C, | C,6 E,2 | F,3 F, F,F,D,>D, | G,6 G,2 | C,3 C, C,C,C,>E, | %6
 (A,4 F,2) ^F,2 | G,3 G, G,,2 G,,2 | C,6 C,2 | C,2 C,2 C,2 E,2 | F,2 F,2 F,2 F,2 | %11
 G,3 G, G,G,G,,>G,, | C,6 C,2 | C,2 D,2 E,2 G,2 | A,2 E,2 F,2 ^F,2 | G,3 G, G,G,G,>G, | C,6 |] %17

